!!!ONB: MCCC : IJH0452_02 : Extracted Monophonic Melody
!!!COM: Haydn, Joseph
!!!OPR: String Quartet in F major
!!!OMV: 2
!!!SCT: Hob.III:26 ; Op.17 No.2
!!!ODT: 1771///
**kern
*thru
*k[b-]
*F:
*clefG
*M3/4
2a
4b-
=1
2g
4a
=2
2f
4g
=3
4c
4d
4e
=4
2.f
=5
2.g
=6
4a
4dd
4b
=7
4cc
4ee
4b
=8
4cc
4gg
4b
=9
4cc
4ccc
4b
=10
4cc
8cc
8b
8cc
8b
=11
4cc
4dd
4b-
=12
2a
4cc
=13
2e-
4d
=14
4dd
4b-
4g
=15
2f
4e
=16
4r
4ff
4ff
=17
8ff
8ee
4ee
4ee
=18
8ee
8dd
4dd
4dd
=19
8dd
8cc
4cc
4r
=20
2ccc
4ddd
=21
2bb-
4ccc
=22
2aa
4bb-
=23
2gg
4aa
=24
2ff
4gg
=25
4cc
4dd
4ee
=26
4ff
2r
=27
4dd
2r
=28
4a
4b-
4g
=29
4f
4a
4e
=30
4f
4cc
4e
=31
4f
4ff
4e
=32
4f
8f
8e
8f
8e
=33
4f
2r
=34
4ff
8ff
8ee
8ff
8ee
=35
4ff
4ee
4gg
=36
2gg
4ff
=37
2ee
4ee
=38
2ee
4dd
=39
2.cc#
=40
2.dd
=41
2.ee-
=42
4dd
4ff
4ff
=43
2ff
4ee-
=44
4dd
4ee-
4ee-
=45
2ee-
4cc
=46
2b-
8cc
8a
=47
4b-
2r
=48
4dd
8dd
8ee-
8dd
8ee-
=49
4dd
4gg
4dd
=50
4cc
8cc
8dd
8cc
8dd
=51
4cc
4ff
4cc
=52
4b-
8b-
8cc
8b-
8cc
=53
4b-
4gg
4b-
=54
4a
8a
8b-
8a
8b-
=55
4a
4dd
4g#
=56
2.a
=57
2.a
=58
2.a
=59
2.a[
=60
4a]
4a
4a
=61
2a
4r
==
*-
